X:0315
M:6/8
L:1/8
Q:3/8=88
K:G
d2c BAG|AGF G2D|d2c BAG|AGF G3:|
g2g f2f|e2e def|gag fgf|e3  d3:|

